src/icons/svg/pictures.svg

<?xml version="1.0" standalone="no"?><!DOCTYPE svg PUBLIC "-//W3C//DTD SVG 1.1//EN" "http://www.w3.org/Graphics/SVG/1.1/DTD/svg11.dtd"><svg t="1562993021524" class="icon" viewBox="0 0 1024 1024" version="1.1" xmlns="http://www.w3.org/2000/svg" p-id="3305" xmlns:xlink="http://www.w3.org/1999/xlink" width="200" height="200"><defs><style type="text/css"></style></defs><path d="M896 256l0 512c0 35.328-28.672 64-64 64l-672 0c0 35.328 28.672 64 64 64l672 0c35.328 0 64-28.672 64-64l0-512c0-35.328-28.672-64-64-64zM864 736l0-512c0-35.328-28.672-64-64-64l-672 0c-35.328 0-64 28.672-64 64l0 512c0 35.328 28.672 64 64 64l672 0c35.328 0 64-28.672 64-64zM128 224l672 0 0 512-672 0 0-512zM500.064 553.952l-95.616-101.792-95.648 163.328-71.744-74.976-77.728 164.128 609.76 0-137.504-359.84-131.52 209.152zM256 448c35.328 0 64-28.672 64-64s-28.672-64-64-64-64 28.672-64 64 28.672 64 64 64z" p-id="3306"></path></svg>

<svg class="icon" viewBox="0 0 1024 1024" xmlns="http://www.w3.org/2000/svg" width="200" height="200"><defs><style/></defs><path d="M896 256v512c0 35.328-28.672 64-64 64H160c0 35.328 28.672 64 64 64h672c35.328 0 64-28.672 64-64V320c0-35.328-28.672-64-64-64zm-32 480V224c0-35.328-28.672-64-64-64H128c-35.328 0-64 28.672-64 64v512c0 35.328 28.672 64 64 64h672c35.328 0 64-28.672 64-64zM128 224h672v512H128V224zm372.064 329.952L404.448 452.16 308.8 615.488l-71.744-74.976-77.728 164.128h609.76L631.584 344.8l-131.52 209.152zM256 448c35.328 0 64-28.672 64-64s-28.672-64-64-64-64 28.672-64 64 28.672 64 64 64z"/></svg>
